;FLAVOR:Marlin
;TIME:5417
;Filament used: 5.98348m
;Layer height: 0.2
;MINX:67.917
;MINY:62.916
;MINZ:0.2
;MAXX:152.083
;MAXY:157.08
;MAXZ:6.6
;POSTPROCESSED
;Generated with Cura_SteamEngine 5.2.2
;
;

;
;

M82 ;absolute extrusion mode


; Pre-Processed for Cancel-Object support by preprocess_cancellation v0.2.0
; 1 known objects
EXCLUDE_OBJECT_DEFINE NAME=VKB_Blackbox_Mounting_Plate_stl CENTER=109.640,107.321 POLYGON=[[77.7,72.7],[77.7,147.3],[142.3,147.3],[142.3,72.7]]
START_PRINT BED_TEMP=60 EXTRUDER_TEMP=200.0
G92 E0
G92 E0
G1 F1500 E-1.2
;LAYER_COUNT:33
;LAYER:0
M106 S127.5
G0 F6000 X72.497 Y68.676 Z0.2
;TYPE:SKIRT
G1 F1500 E0
G1 F1200 X72.934 Y68.213 E0.02118
G1 X73.184 Y67.963 E0.03293
G1 X73.678 Y67.494 E0.05559
G1 X74.094 Y67.128 E0.07402
G1 X74.338 Y66.924 E0.0846
G1 X74.989 Y66.415 E0.11208
G1 X75.436 Y66.091 E0.13044
G1 X75.718 Y65.898 E0.14181
G1 X76.187 Y65.595 E0.16038
G1 X76.905 Y65.169 E0.18815
G1 X77.67 Y64.764 E0.21694
G1 X77.985 Y64.611 E0.22859
G1 X78.576 Y64.346 E0.25013
G1 X79.325 Y64.045 E0.27698
G1 X80.087 Y63.778 E0.30383
G1 X80.903 Y63.536 E0.33214
G1 X81.722 Y63.336 E0.36018
G1 X82.074 Y63.262 E0.37214
G1 X82.87 Y63.122 E0.39903
G1 X83.721 Y63.015 E0.42755
G1 X84.638 Y62.953 E0.45812
G1 X86.192 Y62.916 E0.50982
G1 X134.201 Y62.921 E2.10661
G1 X134.815 Y62.93 E2.12703
G1 X135.271 Y62.946 E2.14221
G1 X135.805 Y62.976 E2.16
G1 X136.57 Y63.046 E2.18555
G1 X137.414 Y63.167 E2.21391
G1 X138.201 Y63.318 E2.24056
G1 X139.026 Y63.517 E2.26879
G1 X139.7 Y63.712 E2.29212
G1 X140.01 Y63.811 E2.30295
G1 X140.766 Y64.079 E2.32963
G1 X141.376 Y64.327 E2.35153
G1 X141.752 Y64.493 E2.3652
G1 X142.604 Y64.914 E2.39681
G1 X143.316 Y65.305 E2.42382
G1 X144.105 Y65.783 E2.4545
G1 X144.748 Y66.223 E2.48042
G1 X144.993 Y66.402 E2.49051
G1 X145.6 Y66.874 E2.51609
G1 X146.015 Y67.223 E2.53412
G1 X146.6 Y67.752 E2.56035
G1 X147.12 Y68.267 E2.58469
G1 X147.344 Y68.502 E2.59549
G1 X147.916 Y69.145 E2.62412
G1 X148.351 Y69.683 E2.64713
G1 X148.622 Y70.041 E2.66206
G1 X149.153 Y70.809 E2.69312
G1 X149.567 Y71.465 E2.71892
G1 X149.989 Y72.193 E2.7469
G1 X150.337 Y72.877 E2.77243
G1 X150.681 Y73.639 E2.80024
G1 X150.974 Y74.376 E2.82662
G1 X151.082 Y74.674 E2.83716
G1 X151.3 Y75.342 E2.86053
G1 X151.412 Y75.726 E2.87383
G1 X151.627 Y76.591 E2.90348
G1 X151.789 Y77.379 E2.93024
G1 X151.942 Y78.336 E2.96247
G1 X151.977 Y78.64 E2.97265
G1 X152.037 Y79.381 E2.99737
G1 X152.075 Y80.346 E3.02949
G1 X152.083 Y81.086 E3.05411
G1 X152.079 Y139.192 E4.98672
G1 X152.07 Y139.813 E5.00738
G1 X152.027 Y140.766 E5.03911
G1 X151.936 Y141.701 E5.07035
G1 X151.871 Y142.164 E5.0859
G1 X151.688 Y143.145 E5.11909
G1 X151.538 Y143.785 E5.14096
G1 X151.273 Y144.725 E5.17344
G1 X151.056 Y145.382 E5.19645
G1 X150.67 Y146.385 E5.2322
G1 X150.504 Y146.76 E5.24584
G1 X150.087 Y147.602 E5.27709
G1 X149.696 Y148.314 E5.30411
G1 X149.255 Y149.047 E5.33256
G1 X148.77 Y149.759 E5.36121
G1 X148.306 Y150.375 E5.38686
G1 X148.109 Y150.621 E5.39734
G1 X147.619 Y151.197 E5.4225
G1 X147.253 Y151.595 E5.44048
G1 X146.71 Y152.142 E5.46612
G1 X146.48 Y152.36 E5.47666
G1 X145.86 Y152.91 E5.50422
G1 X145.382 Y153.299 E5.52472
G1 X145.059 Y153.547 E5.53826
G1 X144.251 Y154.112 E5.57106
G1 X143.554 Y154.554 E5.59851
G1 X142.337 Y155.221 E5.64467
G1 X141.634 Y155.551 E5.6705
G1 X140.594 Y155.976 E5.70786
G1 X140.034 Y156.172 E5.7276
G1 X139.086 Y156.457 E5.76052
G1 X138.383 Y156.634 E5.78463
G1 X137.505 Y156.817 E5.81446
G1 X136.733 Y156.933 E5.84043
G1 X136.382 Y156.974 E5.85218
G1 X135.617 Y157.036 E5.87771
G1 X134.972 Y157.066 E5.89918
G1 X134.461 Y157.078 E5.91619
G1 X85.965 Y157.08 E7.52917
G1 X85.218 Y157.071 E7.55402
G1 X84.749 Y157.055 E7.56962
G1 X84.196 Y157.024 E7.58805
G1 X83.43 Y156.954 E7.61363
G1 X82.586 Y156.833 E7.64199
G1 X81.799 Y156.682 E7.66864
G1 X80.974 Y156.483 E7.69687
G1 X80.3 Y156.288 E7.7202
G1 X79.99 Y156.189 E7.73103
G1 X79.234 Y155.921 E7.75771
G1 X78.624 Y155.673 E7.77961
G1 X78.248 Y155.507 E7.79328
G1 X77.396 Y155.086 E7.82489
G1 X76.684 Y154.695 E7.8519
G1 X75.895 Y154.217 E7.88259
G1 X75.245 Y153.772 E7.90879
G1 X74.999 Y153.592 E7.91892
G1 X74.405 Y153.13 E7.94395
G1 X73.98 Y152.773 E7.96241
G1 X73.738 Y152.559 E7.97316
G1 X73.217 Y152.071 E7.9969
G1 X72.655 Y151.497 E8.02362
G1 X72.278 Y151.081 E8.04229
G1 X71.751 Y150.45 E8.06964
G1 X71.519 Y150.153 E8.08217
G1 X70.891 Y149.26 E8.11848
G1 X70.437 Y148.542 E8.14674
G1 X70.008 Y147.802 E8.17519
G1 X69.642 Y147.08 E8.20211
G1 X69.305 Y146.329 E8.22949
G1 X69.191 Y146.051 E8.23948
G1 X68.921 Y145.333 E8.26499
G1 X68.707 Y144.682 E8.28779
G1 X68.594 Y144.298 E8.3011
G1 X68.367 Y143.384 E8.33242
G1 X68.206 Y142.592 E8.3593
G1 X68.06 Y141.676 E8.39015
G1 X68.025 Y141.376 E8.4002
G1 X67.963 Y140.62 E8.42543
G1 X67.936 Y140.048 E8.44447
G1 X67.917 Y138.889 E8.48303
G1 X67.926 Y80.488 E10.42545
G1 X67.939 Y79.962 E10.44295
G1 X67.97 Y79.317 E10.46443
G1 X68.044 Y78.467 E10.49281
G1 X68.095 Y78.063 E10.50635
G1 X68.191 Y77.446 E10.52712
G1 X68.248 Y77.137 E10.53757
G1 X68.38 Y76.52 E10.55856
G1 X68.584 Y75.729 E10.58573
G1 X68.834 Y74.917 E10.61399
G1 X68.938 Y74.615 E10.62461
G1 X69.137 Y74.083 E10.6435
G1 X69.26 Y73.778 E10.65444
G1 X69.476 Y73.278 E10.67255
G1 X69.61 Y72.988 E10.68318
G1 X69.972 Y72.266 E10.71004
G1 X70.249 Y71.763 E10.72914
G1 X70.419 Y71.473 E10.74032
G1 X70.878 Y70.748 E10.76886
G1 X71.19 Y70.296 E10.78713
G1 X71.38 Y70.035 E10.79787
G1 X71.875 Y69.398 E10.8247
G1 X72.253 Y68.95 E10.8442
G1 X72.497 Y68.676 E10.8564
G0 F6000 X72.796 Y68.942
G1 F1200 X73.217 Y68.496 E10.8768
G1 X73.467 Y68.246 E10.88856
G1 X73.95 Y67.788 E10.91069
G1 X74.351 Y67.435 E10.92846
G1 X74.976 Y66.927 E10.95525
G1 X75.231 Y66.733 E10.96591
G1 X75.662 Y66.422 E10.98359
G1 X75.944 Y66.229 E10.99495
G1 X76.396 Y65.936 E11.01287
G1 X76.672 Y65.767 E11.02363
G1 X77.366 Y65.372 E11.05019
G1 X77.845 Y65.124 E11.06813
G1 X78.16 Y64.971 E11.07978
G1 X78.729 Y64.715 E11.10053
G1 X79.052 Y64.581 E11.11216
G1 X79.741 Y64.319 E11.13668
G1 X80.48 Y64.074 E11.16257
G1 X81.004 Y63.924 E11.1807
G1 X81.804 Y63.728 E11.2081
G1 X82.156 Y63.654 E11.22006
G1 X82.933 Y63.517 E11.2463
G1 X83.764 Y63.413 E11.27416
G1 X84.648 Y63.353 E11.30363
G1 X86.192 Y63.316 E11.355
G1 X134.195 Y63.321 E12.95158
G1 X134.809 Y63.33 E12.97201
G1 X135.783 Y63.376 E13.00444
G1 X136.52 Y63.443 E13.02905
G1 X137.344 Y63.561 E13.05674
G1 X138.114 Y63.709 E13.08282
G1 X138.92 Y63.903 E13.11039
G1 X139.579 Y64.093 E13.1332
G1 X139.889 Y64.192 E13.14402
G1 X140.627 Y64.454 E13.17007
G1 X141.214 Y64.693 E13.19115
G1 X141.59 Y64.859 E13.20482
G1 X142.411 Y65.265 E13.23528
G1 X143.123 Y65.656 E13.2623
G1 X143.884 Y66.116 E13.29188
G1 X144.512 Y66.546 E13.31719
G1 X145.121 Y67.003 E13.34252
G1 X145.751 Y67.523 E13.36969
G1 X145.991 Y67.735 E13.38034
G1 X146.507 Y68.219 E13.40387
G1 X147.055 Y68.778 E13.4299
G1 X147.613 Y69.406 E13.45784
G1 X148.032 Y69.924 E13.48
G1 X148.303 Y70.282 E13.49494
G1 X148.815 Y71.023 E13.52489
G1 X149.229 Y71.679 E13.55069
G1 X149.635 Y72.38 E13.57764
G1 X149.975 Y73.048 E13.60257
G1 X150.311 Y73.792 E13.62972
G1 X150.598 Y74.512 E13.6555
G1 X150.706 Y74.81 E13.66604
G1 X150.916 Y75.454 E13.68857
G1 X151.028 Y75.838 E13.70188
G1 X151.235 Y76.671 E13.73042
G1 X151.397 Y77.459 E13.75718
G1 X151.544 Y78.382 E13.78827
G1 X151.579 Y78.686 E13.79845
G1 X151.637 Y79.4 E13.82227
G1 X151.675 Y80.351 E13.85393
G1 X151.683 Y81.086 E13.87837
G1 X151.679 Y139.187 E15.81082
G1 X151.656 Y140.226 E15.84539
G1 X151.628 Y140.744 E15.86264
G1 X151.54 Y141.646 E15.89278
G1 X151.475 Y142.109 E15.90833
G1 X151.298 Y143.054 E15.94031
G1 X151.148 Y143.694 E15.96218
G1 X150.893 Y144.599 E15.99345
G1 X150.676 Y145.256 E16.01646
G1 X150.304 Y146.223 E16.05092
G1 X150.138 Y146.598 E16.06456
G1 X149.736 Y147.409 E16.09467
G1 X149.345 Y148.121 E16.12168
G1 X148.92 Y148.828 E16.14912
G1 X148.448 Y149.522 E16.17704
G1 X147.994 Y150.125 E16.20214
G1 X147.797 Y150.371 E16.21262
G1 X147.318 Y150.933 E16.23718
G1 X146.965 Y151.317 E16.25453
G1 X146.435 Y151.851 E16.27956
G1 X145.829 Y152.409 E16.30695
G1 X145.599 Y152.607 E16.31705
G1 X145.138 Y152.982 E16.33681
G1 X144.815 Y153.23 E16.35036
G1 X144.037 Y153.774 E16.38193
G1 X143.34 Y154.216 E16.40938
G1 X142.167 Y154.859 E16.45387
G1 X141.464 Y155.189 E16.4797
G1 X140.462 Y155.599 E16.51571
G1 X139.902 Y155.795 E16.53545
G1 X138.988 Y156.069 E16.56718
G1 X138.285 Y156.246 E16.59129
G1 X137.44 Y156.423 E16.62001
G1 X136.687 Y156.535 E16.64533
G1 X136.336 Y156.576 E16.65708
G1 X135.598 Y156.637 E16.68171
G1 X134.953 Y156.667 E16.70319
G1 X134.461 Y156.678 E16.71956
G1 X85.965 Y156.68 E18.33254
G1 X85.224 Y156.671 E18.35719
G1 X84.772 Y156.655 E18.37223
G1 X84.219 Y156.624 E18.39065
G1 X83.48 Y156.557 E18.41533
G1 X82.656 Y156.439 E18.44302
G1 X81.886 Y156.291 E18.4691
G1 X81.08 Y156.097 E18.49667
G1 X80.421 Y155.907 E18.51948
G1 X80.111 Y155.808 E18.53031
G1 X79.373 Y155.546 E18.55635
G1 X78.786 Y155.307 E18.57743
G1 X78.41 Y155.141 E18.5911
G1 X77.589 Y154.735 E18.62157
G1 X76.877 Y154.344 E18.64858
G1 X76.116 Y153.884 E18.67816
G1 X75.482 Y153.45 E18.70371
G1 X75.236 Y153.27 E18.71385
G1 X74.654 Y152.817 E18.73838
G1 X74.245 Y152.474 E18.75614
G1 X74.003 Y152.26 E18.76688
G1 X73.494 Y151.783 E18.79008
G1 X72.945 Y151.221 E18.81621
G1 X72.581 Y150.82 E18.83423
G1 X72.067 Y150.203 E18.86094
G1 X71.835 Y149.906 E18.87347
G1 X71.229 Y149.046 E18.90846
G1 X70.775 Y148.328 E18.93672
G1 X70.362 Y147.615 E18.96412
G1 X70.005 Y146.911 E18.99038
G1 X69.676 Y146.177 E19.01713
G1 X69.406 Y145.497 E19.04146
G1 X69.297 Y145.197 E19.05208
G1 X69.091 Y144.569 E19.07406
G1 X68.978 Y144.185 E19.08738
G1 X68.759 Y143.305 E19.11754
G1 X68.598 Y142.513 E19.14442
G1 X68.457 Y141.629 E19.17419
G1 X68.422 Y141.329 E19.18424
G1 X68.363 Y140.601 E19.20853
G1 X68.325 Y139.645 E19.24035
G1 X68.317 Y138.889 E19.2655
G1 X68.326 Y80.488 E21.20792
G1 X68.338 Y79.981 E21.22479
G1 X68.369 Y79.336 E21.24627
G1 X68.44 Y78.517 E21.27361
G1 X68.491 Y78.113 E21.28715
G1 X68.584 Y77.518 E21.30718
G1 X68.641 Y77.209 E21.31763
G1 X68.768 Y76.615 E21.33784
G1 X68.968 Y75.842 E21.36439
G1 X69.061 Y75.524 E21.37541
G1 X69.317 Y74.746 E21.40266
G1 X69.508 Y74.232 E21.42089
G1 X69.631 Y73.927 E21.43183
G1 X69.84 Y73.446 E21.44927
G1 X70.184 Y72.726 E21.47581
G1 X70.327 Y72.45 E21.48615
G1 X70.594 Y71.965 E21.50457
G1 X70.764 Y71.675 E21.51575
G1 X71.212 Y70.967 E21.54361
G1 X71.513 Y70.531 E21.56124
G1 X71.992 Y69.891 E21.58782
G1 X72.187 Y69.647 E21.59821
G1 X72.552 Y69.216 E21.617
G1 X72.796 Y68.942 E21.6292
G0 F6000 X73.095 Y69.208
G1 F1200 X73.5 Y68.779 E21.64882
G1 X73.75 Y68.529 E21.66058
G1 X74.222 Y68.081 E21.68223
G1 X74.608 Y67.742 E21.69931
G1 X75.218 Y67.245 E21.72548
G1 X75.473 Y67.051 E21.73614
G1 X76.17 Y66.559 E21.76452
G1 X76.605 Y66.277 E21.78176
G1 X77.29 Y65.87 E21.80826
G1 X77.559 Y65.722 E21.81847
G1 X78.02 Y65.484 E21.83573
G1 X78.335 Y65.331 E21.84738
G1 X78.882 Y65.085 E21.86732
G1 X79.205 Y64.951 E21.87895
G1 X79.879 Y64.694 E21.90295
G1 X80.6 Y64.455 E21.92821
G1 X81.104 Y64.311 E21.94564
G1 X81.887 Y64.119 E21.97246
G1 X82.239 Y64.045 E21.98442
G1 X82.996 Y63.912 E22.00999
G1 X83.808 Y63.81 E22.0372
G1 X84.658 Y63.752 E22.06554
G1 X85.925 Y63.719 E22.1077
G1 X134.189 Y63.721 E23.71296
G1 X134.803 Y63.73 E23.73339
G1 X135.76 Y63.775 E23.76525
G1 X136.47 Y63.84 E23.78897
G1 X137.274 Y63.955 E23.81598
G1 X138.026 Y64.099 E23.84145
G1 X138.813 Y64.288 E23.86837
G1 X139.457 Y64.474 E23.89066
G1 X139.767 Y64.573 E23.90148
G1 X140.487 Y64.829 E23.9269
G1 X141.053 Y65.059 E23.94722
G1 X141.429 Y65.225 E23.96089
G1 X142.219 Y65.615 E23.99019
G1 X142.931 Y66.006 E24.01721
G1 X143.662 Y66.449 E24.04564
G1 X144.276 Y66.869 E24.07038
G1 X144.872 Y67.316 E24.09516
G1 X145.486 Y67.822 E24.12162
G1 X145.726 Y68.034 E24.13227
G1 X146.23 Y68.507 E24.15526
G1 X146.765 Y69.054 E24.18071
G1 X147.31 Y69.667 E24.20799
G1 X147.713 Y70.166 E24.22933
G1 X147.984 Y70.524 E24.24426
G1 X148.477 Y71.236 E24.27307
G1 X148.891 Y71.892 E24.29887
G1 X149.282 Y72.567 E24.32481
G1 X149.613 Y73.218 E24.3491
G1 X149.942 Y73.944 E24.37561
G1 X150.062 Y74.235 E24.38608
G1 X150.33 Y74.947 E24.41138
G1 X150.532 Y75.566 E24.43304
G1 X150.644 Y75.95 E24.44634
G1 X150.843 Y76.752 E24.47383
G1 X151.005 Y77.54 E24.50059
G1 X151.147 Y78.427 E24.53046
G1 X151.182 Y78.731 E24.54064
G1 X151.238 Y79.419 E24.5636
G1 X151.265 Y79.993 E24.58271
G1 X151.283 Y81.086 E24.61907
G1 X151.279 Y139.181 E26.55132
G1 X151.27 Y139.802 E26.57197
G1 X151.228 Y140.723 E26.60264
G1 X151.144 Y141.59 E26.63161
G1 X151.079 Y142.053 E26.64716
G1 X150.909 Y142.963 E26.67795
G1 X150.759 Y143.603 E26.69981
G1 X150.513 Y144.474 E26.72992
G1 X150.296 Y145.131 E26.75293
G1 X149.938 Y146.061 E26.78607
G1 X149.772 Y146.436 E26.79971
G1 X149.386 Y147.217 E26.82869
G1 X148.995 Y147.929 E26.85571
G1 X148.586 Y148.609 E26.8821
G1 X148.125 Y149.286 E26.90934
G1 X147.682 Y149.875 E26.93385
G1 X147.485 Y150.121 E26.94434
G1 X147.017 Y150.67 E26.96833
G1 X146.678 Y151.039 E26.985
G1 X146.16 Y151.561 E27.00946
G1 X145.93 Y151.779 E27.02
G1 X145.338 Y152.304 E27.04631
G1 X144.895 Y152.664 E27.0653
G1 X144.572 Y152.912 E27.07884
G1 X143.823 Y153.436 E27.10925
G1 X143.126 Y153.878 E27.1367
G1 X141.997 Y154.497 E27.17952
G1 X141.294 Y154.827 E27.20535
G1 X140.33 Y155.221 E27.23999
G1 X139.77 Y155.417 E27.25972
G1 X138.89 Y155.681 E27.29028
G1 X138.187 Y155.858 E27.31439
G1 X137.374 Y156.028 E27.34202
G1 X136.64 Y156.138 E27.3667
G1 X136.289 Y156.179 E27.37846
G1 X135.58 Y156.237 E27.40212
G1 X134.935 Y156.267 E27.42359
G1 X134.461 Y156.278 E27.43936
G1 X85.965 Y156.28 E29.05235
G1 X85.229 Y156.271 E29.07683
G1 X84.794 Y156.256 E29.0913
G1 X84.241 Y156.225 E29.10973
G1 X83.53 Y156.16 E29.13347
G1 X82.726 Y156.045 E29.16049
G1 X81.974 Y155.901 E29.18595
G1 X81.187 Y155.712 E29.21287
G1 X80.543 Y155.526 E29.23517
G1 X80.233 Y155.427 E29.24599
G1 X79.513 Y155.171 E29.27141
G1 X78.947 Y154.941 E29.29173
G1 X78.571 Y154.775 E29.3054
G1 X77.781 Y154.385 E29.3347
G1 X77.069 Y153.994 E29.36172
G1 X76.338 Y153.551 E29.39015
G1 X75.718 Y153.127 E29.41513
G1 X75.472 Y152.947 E29.42527
G1 X74.904 Y152.505 E29.4492
G1 X74.51 Y152.174 E29.46632
G1 X74.268 Y151.96 E29.47706
G1 X73.771 Y151.495 E29.4997
G1 X73.235 Y150.945 E29.52524
G1 X72.885 Y150.559 E29.54258
G1 X72.382 Y149.957 E29.56867
G1 X72.15 Y149.66 E29.5812
G1 X71.567 Y148.832 E29.61488
G1 X71.113 Y148.114 E29.64314
G1 X70.716 Y147.428 E29.6695
G1 X70.367 Y146.742 E29.6951
G1 X70.046 Y146.025 E29.72123
G1 X69.782 Y145.36 E29.74502
G1 X69.673 Y145.06 E29.75564
G1 X69.475 Y144.456 E29.77678
G1 X69.362 Y144.072 E29.79009
G1 X69.151 Y143.225 E29.81913
G1 X68.99 Y142.433 E29.84601
G1 X68.855 Y141.583 E29.87463
G1 X68.82 Y141.283 E29.88468
G1 X68.762 Y140.582 E29.90807
G1 X68.735 Y140.01 E29.92712
G1 X68.717 Y138.889 E29.96441
G1 X68.726 Y80.488 E31.90683
G1 X68.738 Y80 E31.92307
G1 X68.769 Y79.355 E31.94455
G1 X68.837 Y78.568 E31.97082
G1 X68.888 Y78.164 E31.98436
G1 X68.977 Y77.591 E32.00365
G1 X69.034 Y77.282 E32.0141
G1 X69.157 Y76.71 E32.03356
G1 X69.352 Y75.954 E32.05953
G1 X69.445 Y75.636 E32.07055
G1 X69.695 Y74.876 E32.09716
G1 X69.879 Y74.382 E32.11469
G1 X70.002 Y74.077 E32.12563
G1 X70.203 Y73.614 E32.14242
G1 X70.539 Y72.91 E32.16836
G1 X70.682 Y72.634 E32.1787
G1 X70.939 Y72.168 E32.1964
G1 X71.109 Y71.878 E32.20758
G1 X71.547 Y71.186 E32.23482
G1 X71.837 Y70.767 E32.25177
G1 X72.305 Y70.141 E32.27777
G1 X72.5 Y69.897 E32.28816
G1 X72.851 Y69.482 E32.30623
G1 X73.095 Y69.208 E32.31844
G1 F1500 E31.11844
;MESH:VKB_Blackbox_Mounting_Plate.stl
EXCLUDE_OBJECT_START NAME=VKB_Blackbox_Mounting_Plate_stl
G0 F6000 X82.441 Y80.508
G0 X83.306 Y83.679
G0 X83.722 Y84.36
G0 X84.197 Y84.801
G0 X86.396 Y86.378
;TYPE:WALL-INNER
G1 F1500 E32.31844
G1 F1200 X86.146 Y86.395 E32.32677
G1 X85.731 Y86.395 E32.34057
G1 X85.201 Y86.323 E32.35836
G1 X84.708 Y86.184 E32.3754
G1 X84.328 Y86.023 E32.38913
G1 X84.095 Y85.902 E32.39786
G1 X83.754 Y85.693 E32.41116
G1 X83.442 Y85.443 E32.42446
G1 X83.251 Y85.265 E32.43314
G1 X82.973 Y84.967 E32.4467
