;FLAVOR:Marlin
;TIME:12637
;Filament used: 19.5267m
;Layer height: 0.2
;MINX:58.077
;MINY:35.093
;MINZ:0.2
;MAXX:161.922
;MAXY:184.907
;MAXZ:6.6
;POSTPROCESSED
;Generated with Cura_SteamEngine 5.2.2
;
;

;
;

M82 ;absolute extrusion mode


; Pre-Processed for Cancel-Object support by preprocess_cancellation v0.2.0
; 1 known objects
EXCLUDE_OBJECT_DEFINE NAME=VKB_Gunfighter_Mk4_Base_Plate_stl CENTER=110.090,112.722 POLYGON=[[64.7,41.7],[64.7,178.3],[155.3,178.3],[155.3,41.7]]
START_PRINT BED_TEMP=60 EXTRUDER_TEMP=200.0
G92 E0
G92 E0
G1 F1500 E-1.2
;LAYER_COUNT:33
;LAYER:0
M106 S127.5
G0 F6000 X72.676 Y43.516 Z0.2
;TYPE:SKIRT
G1 F1500 E0
G1 F1200 X73.088 Y42.862 E0.02571
G1 X73.4 Y42.405 E0.04411
G1 X73.858 Y41.781 E0.06986
G1 X74.2 Y41.347 E0.08824
G1 X74.701 Y40.757 E0.11398
G1 X75.057 Y40.367 E0.13154
G1 X75.597 Y39.812 E0.1573
G1 X75.998 Y39.427 E0.17579
G1 X76.576 Y38.912 E0.20154
G1 X77.006 Y38.556 E0.2201
G1 X77.619 Y38.084 E0.24583
G1 X78.044 Y37.779 E0.26323
G1 X78.689 Y37.348 E0.28904
G1 X79.161 Y37.056 E0.3075
G1 X79.833 Y36.673 E0.33322
G1 X80.316 Y36.42 E0.35136
G1 X81.013 Y36.085 E0.37708
G1 X81.575 Y35.842 E0.39744
G1 X81.828 Y35.744 E0.40647
G1 X82.63 Y35.482 E0.43453
G1 X82.888 Y35.413 E0.44341
G1 X83.723 Y35.238 E0.47179
G1 X83.991 Y35.197 E0.4808
G1 X84.767 Y35.117 E0.50675
G1 X85.441 Y35.093 E0.52918
G1 X134.559 Y35.094 E2.16285
G1 X135.204 Y35.116 E2.18432
G1 X136.009 Y35.197 E2.21123
G1 X136.277 Y35.238 E2.22025
G1 X137.112 Y35.413 E2.24862
G1 X137.37 Y35.482 E2.2575
G1 X138.138 Y35.73 E2.28435
G1 X138.392 Y35.827 E2.29339
G1 X138.988 Y36.084 E2.31498
G1 X139.685 Y36.419 E2.3407
G1 X140.168 Y36.672 E2.35883
G1 X140.84 Y37.055 E2.38456
G1 X141.309 Y37.345 E2.4029
G1 X141.953 Y37.775 E2.42865
G1 X142.392 Y38.09 E2.44663
G1 X143.004 Y38.563 E2.47235
G1 X143.423 Y38.911 E2.49047
G1 X144.001 Y39.426 E2.51622
G1 X144.402 Y39.811 E2.53471
G1 X144.942 Y40.366 E2.56046
G1 X145.298 Y40.756 E2.57802
G1 X145.799 Y41.346 E2.60377
G1 X146.141 Y41.78 E2.62215
G1 X146.599 Y42.404 E2.64789
G1 X146.908 Y42.857 E2.66613
G1 X147.32 Y43.51 E2.69181
G1 X147.59 Y43.972 E2.70961
G1 X147.958 Y44.655 E2.73541
G1 X148.201 Y45.148 E2.75369
G1 X148.519 Y45.853 E2.77942
G1 X148.726 Y46.359 E2.7976
G1 X149.083 Y47.34 E2.83232
G1 X157.498 Y72.816 E3.72468
G1 X158.861 Y76.891 E3.8676
G1 X159.575 Y79.059 E3.94352
G1 X159.747 Y79.526 E3.96007
G1 X160.008 Y80.281 E3.98664
G1 X160.46 Y81.71 E4.03649
G1 X160.559 Y82.051 E4.0483
G1 X160.885 Y83.282 E4.09065
G1 X160.969 Y83.633 E4.10266
G1 X161.238 Y84.879 E4.14505
G1 X161.307 Y85.235 E4.15712
G1 X161.518 Y86.493 E4.19954
G1 X161.569 Y86.852 E4.2116
G1 X161.721 Y88.117 E4.25398
G1 X161.756 Y88.48 E4.26611
G1 X161.862 Y89.973 E4.31589
G1 X161.916 Y91.292 E4.3598
G1 X161.922 Y92.229 E4.39096
G1 X161.906 Y94.788 E4.47608
G1 X161.877 Y96.439 E4.531
G1 X161.774 Y98.385 E4.59581
G1 X161.567 Y100.609 E4.6701
G1 X161.352 Y102.247 E4.72505
G1 X161.032 Y104.164 E4.78969
G1 X160.978 Y104.45 E4.79937
G1 X160.577 Y106.35 E4.86396
G1 X160.18 Y107.954 E4.91892
G1 X160.103 Y108.24 E4.92877
G1 X159.56 Y110.106 E4.99341
G1 X159.044 Y111.673 E5.04828
G1 X158.372 Y113.497 E5.11293
G1 X158.264 Y113.772 E5.12276
G1 X157.517 Y115.558 E5.18715
G1 X156.672 Y117.413 E5.25494
G1 X156.492 Y117.96 E5.2741
G1 X156.418 Y118.522 E5.29295
G1 X156.407 Y118.875 E5.3047
G1 X156.406 Y173.5 E7.12153
G1 X156.394 Y173.925 E7.13567
G1 X156.372 Y174.328 E7.1491
G1 X156.279 Y175.179 E7.17757
G1 X156.213 Y175.577 E7.19099
G1 X156.01 Y176.472 E7.22151
G1 X155.897 Y176.862 E7.23502
G1 X155.615 Y177.668 E7.26342
G1 X155.461 Y178.041 E7.27684
G1 X155.075 Y178.842 E7.30641
G1 X154.879 Y179.196 E7.31987
G1 X154.418 Y179.93 E7.3487
G1 X154.184 Y180.26 E7.36216
G1 X153.645 Y180.936 E7.39091
G1 X153.376 Y181.238 E7.40436
G1 X152.741 Y181.873 E7.43423
G1 X152.438 Y182.143 E7.44773
G1 X151.755 Y182.686 E7.47675
G1 X151.423 Y182.921 E7.49028
G1 X150.705 Y183.373 E7.5185
G1 X150.354 Y183.568 E7.53185
G1 X149.543 Y183.96 E7.56181
G1 X149.17 Y184.114 E7.57523
G1 X148.369 Y184.394 E7.60346
G1 X147.98 Y184.507 E7.61693
G1 X147.089 Y184.71 E7.64732
G1 X146.688 Y184.777 E7.66085
G1 X145.847 Y184.871 E7.68899
G1 X145.444 Y184.894 E7.70242
G1 X145 Y184.907 E7.71719
G1 X75 Y184.906 E10.0454
G1 X74.575 Y184.894 E10.05954
G1 X74.172 Y184.872 E10.07297
G1 X73.312 Y184.777 E10.10174
G1 X72.911 Y184.71 E10.11527
G1 X72.02 Y184.507 E10.14566
G1 X71.631 Y184.394 E10.15913
G1 X70.83 Y184.114 E10.18736
G1 X70.457 Y183.96 E10.20078
G1 X69.646 Y183.568 E10.23074
G1 X69.295 Y183.373 E10.24409
G1 X68.577 Y182.921 E10.27231
G1 X68.245 Y182.686 E10.28584
G1 X67.562 Y182.143 E10.31486
G1 X67.259 Y181.873 E10.32836
G1 X66.624 Y181.238 E10.35823
G1 X66.355 Y180.936 E10.37168
G1 X65.816 Y180.26 E10.40043
G1 X65.582 Y179.93 E10.41389
G1 X65.121 Y179.196 E10.44272
G1 X64.925 Y178.842 E10.45618
G1 X64.539 Y178.041 E10.48575
G1 X64.385 Y177.668 E10.49917
G1 X64.103 Y176.862 E10.52757
G1 X63.99 Y176.472 E10.54108
G1 X63.787 Y175.577 E10.5716
G1 X63.721 Y175.179 E10.58502
G1 X63.629 Y174.349 E10.6128
G1 X63.606 Y173.947 E10.62619
G1 X63.593 Y173.501 E10.64103
G1 X63.594 Y118.89 E12.4574
G1 X63.582 Y118.522 E12.46964
G1 X63.528 Y118.096 E12.48393
G1 X63.47 Y117.844 E12.49253
G1 X63.322 Y117.397 E12.50819
G1 X62.369 Y115.297 E12.58489
G1 X61.628 Y113.498 E12.6496
G1 X60.955 Y111.671 E12.71436
G1 X60.439 Y110.102 E12.76929
G1 X59.897 Y108.243 E12.8337
G1 X59.818 Y107.946 E12.84392
G1 X59.361 Y106.073 E12.90804
G1 X59.023 Y104.456 E12.96299
G1 X58.968 Y104.163 E12.9729
G1 X58.648 Y102.247 E13.03751
G1 X58.433 Y100.611 E13.09239
G1 X58.226 Y98.385 E13.16675
G1 X58.123 Y96.44 E13.23153
G1 X58.093 Y94.702 E13.28935
G1 X58.077 Y92.108 E13.37563
G1 X58.085 Y91.275 E13.40333
G1 X58.136 Y89.988 E13.44617
G1 X58.243 Y88.48 E13.49645
G1 X58.278 Y88.117 E13.50858
G1 X58.43 Y86.852 E13.55096
G1 X58.481 Y86.493 E13.56302
G1 X58.692 Y85.235 E13.60545
G1 X58.76 Y84.881 E13.61744
G1 X59.029 Y83.633 E13.6599
G1 X59.114 Y83.28 E13.67197
G1 X59.44 Y82.049 E13.71433
G1 X59.542 Y81.697 E13.72652
G1 X59.989 Y80.29 E13.77562
G1 X60.249 Y79.535 E13.80218
G1 X60.426 Y79.055 E13.81919
G1 X61.148 Y76.86 E13.89605
G1 X62.501 Y72.816 E14.03788
G1 X70.918 Y47.34 E14.93027
G1 X71.27 Y46.369 E14.96462
G1 X71.479 Y45.858 E14.98298
G1 X71.797 Y45.152 E15.00873
G1 X72.043 Y44.655 E15.02718
G1 X72.41 Y43.974 E15.05291
G1 X72.676 Y43.516 E15.07052
G0 F6000 X73.015 Y43.73
G1 F1200 X73.427 Y43.076 E15.09623
G1 X73.722 Y42.641 E15.11371
G1 X74.18 Y42.017 E15.13946
G1 X74.505 Y41.606 E15.15689
G1 X75.006 Y41.016 E15.18263
G1 X75.343 Y40.646 E15.19928
G1 X75.883 Y40.091 E15.22503
G1 X76.264 Y39.726 E15.24258
G1 X76.842 Y39.211 E15.26833
G1 X77.25 Y38.873 E15.28595
G1 X77.863 Y38.401 E15.31168
G1 X78.267 Y38.111 E15.32822
G1 X78.912 Y37.68 E15.35402
G1 X79.359 Y37.404 E15.3715
G1 X80.031 Y37.021 E15.39722
G1 X80.489 Y36.78 E15.41444
G1 X81.186 Y36.445 E15.44016
G1 X81.719 Y36.215 E15.45946
G1 X81.972 Y36.117 E15.46849
G1 X82.733 Y35.868 E15.49512
G1 X82.991 Y35.799 E15.504
G1 X83.784 Y35.633 E15.53095
G1 X84.052 Y35.592 E15.53997
G1 X84.788 Y35.517 E15.56457
G1 X85.441 Y35.493 E15.58631
G1 X134.559 Y35.494 E17.21998
G1 X135.185 Y35.516 E17.24081
G1 X135.948 Y35.592 E17.26632
G1 X136.216 Y35.633 E17.27533
G1 X137.009 Y35.799 E17.30228
G1 X137.267 Y35.868 E17.31116
G1 X137.995 Y36.104 E17.33662
G1 X138.249 Y36.201 E17.34566
G1 X138.815 Y36.444 E17.36615
G1 X139.512 Y36.779 E17.39187
G1 X139.97 Y37.02 E17.40908
G1 X140.642 Y37.403 E17.43481
G1 X141.087 Y37.678 E17.45221
G1 X141.731 Y38.108 E17.47796
G1 X142.147 Y38.407 E17.495
G1 X142.759 Y38.88 E17.52073
G1 X143.157 Y39.21 E17.53792
G1 X143.735 Y39.725 E17.56367
G1 X144.116 Y40.09 E17.58122
G1 X144.656 Y40.645 E17.60697
G1 X144.993 Y41.015 E17.62362
G1 X145.494 Y41.605 E17.64936
G1 X145.819 Y42.016 E17.66679
G1 X146.277 Y42.64 E17.69254
G1 X146.569 Y43.07 E17.70982
G1 X146.981 Y43.723 E17.7355
G1 X147.238 Y44.162 E17.75242
G1 X147.606 Y44.845 E17.77823
G1 X147.837 Y45.312 E17.79556
G1 X148.155 Y46.017 E17.82128
G1 X148.351 Y46.497 E17.83852
G1 X148.704 Y47.465 E17.87279
G1 X157.119 Y72.943 E18.76522
G1 X158.481 Y77.017 E18.90809
G1 X159.197 Y79.19 E18.98419
G1 X159.369 Y79.656 E19.00071
G1 X159.696 Y80.611 E19.03429
G1 X160.079 Y81.83 E19.07678
G1 X160.172 Y82.154 E19.088
G1 X160.498 Y83.385 E19.13035
G1 X160.578 Y83.717 E19.14171
G1 X160.847 Y84.963 E19.18411
G1 X160.912 Y85.301 E19.19555
G1 X161.123 Y86.559 E19.23798
G1 X161.172 Y86.9 E19.24944
G1 X161.324 Y88.165 E19.29181
G1 X161.357 Y88.509 E19.30331
G1 X161.463 Y89.991 E19.35273
G1 X161.509 Y91.017 E19.38688
G1 X161.522 Y92.227 E19.42713
G1 X161.506 Y94.781 E19.51208
G1 X161.467 Y96.714 E19.57638
G1 X161.375 Y98.363 E19.63132
G1 X161.201 Y100.28 E19.69534
G1 X161.17 Y100.557 E19.70461
G1 X160.914 Y102.47 E19.7688
G1 X160.638 Y104.097 E19.82369
G1 X160.188 Y106.254 E19.89698
G1 X159.719 Y108.129 E19.96126
G1 X159.18 Y109.981 E20.02541
G1 X158.664 Y111.548 E20.08029
G1 X157.997 Y113.358 E20.14444
G1 X157.26 Y115.146 E20.20877
G1 X156.254 Y117.366 E20.28983
G1 X156.145 Y117.734 E20.3026
G1 X156.055 Y118.127 E20.31601
G1 X156.018 Y118.505 E20.32864
G1 X156.007 Y118.862 E20.34052
G1 X156.006 Y173.5 E22.15779
G1 X155.995 Y173.903 E22.17119
G1 X155.973 Y174.306 E22.18462
G1 X155.884 Y175.114 E22.21166
G1 X155.818 Y175.512 E22.22507
G1 X155.626 Y176.36 E22.25399
G1 X155.513 Y176.75 E22.2675
G1 X155.245 Y177.515 E22.29446
G1 X155.091 Y177.888 E22.30788
G1 X154.725 Y178.648 E22.33594
G1 X154.529 Y179.002 E22.34939
G1 X154.091 Y179.698 E22.37675
G1 X153.857 Y180.028 E22.3902
G1 X153.347 Y180.67 E22.41747
G1 X153.078 Y180.972 E22.43092
G1 X152.475 Y181.575 E22.45929
G1 X152.172 Y181.845 E22.47278
G1 X151.524 Y182.36 E22.50031
G1 X151.192 Y182.595 E22.51384
G1 X150.511 Y183.024 E22.54061
G1 X150.16 Y183.219 E22.55397
G1 X149.39 Y183.59 E22.5824
G1 X149.017 Y183.744 E22.59582
G1 X148.257 Y184.01 E22.6226
G1 X147.868 Y184.123 E22.63607
G1 X147.024 Y184.316 E22.66487
G1 X146.623 Y184.383 E22.67839
G1 X145.825 Y184.472 E22.7051
G1 X145.422 Y184.495 E22.71852
G1 X145 Y184.507 E22.73256
G1 X75 Y184.506 E25.06077
G1 X74.597 Y184.495 E25.07418
G1 X74.194 Y184.473 E25.08761
G1 X73.377 Y184.383 E25.11494
G1 X72.976 Y184.316 E25.12847
G1 X72.132 Y184.123 E25.15726
G1 X71.743 Y184.01 E25.17073
G1 X70.983 Y183.744 E25.19752
G1 X70.61 Y183.59 E25.21094
G1 X69.84 Y183.219 E25.23937
G1 X69.489 Y183.024 E25.25272
G1 X68.808 Y182.595 E25.27949
G1 X68.476 Y182.36 E25.29302
G1 X67.828 Y181.845 E25.32055
G1 X67.525 Y181.575 E25.33405
G1 X66.922 Y180.972 E25.36241
G1 X66.653 Y180.67 E25.37586
G1 X66.143 Y180.028 E25.40313
G1 X65.909 Y179.698 E25.41659
G1 X65.471 Y179.002 E25.44394
G1 X65.275 Y178.648 E25.4574
G1 X64.909 Y177.888 E25.48545
G1 X64.755 Y177.515 E25.49888
G1 X64.487 Y176.75 E25.52584
G1 X64.374 Y176.36 E25.53934
G1 X64.182 Y175.512 E25.56826
G1 X64.116 Y175.114 E25.58168
G1 X64.028 Y174.326 E25.60805
G1 X64.005 Y173.924 E25.62144
G1 X63.993 Y173.501 E25.63552
G1 X63.994 Y118.877 E27.45232
G1 X63.982 Y118.505 E27.4647
G1 X63.945 Y118.125 E27.4774
G1 X63.857 Y117.741 E27.4905
G1 X63.743 Y117.356 E27.50385
G1 X62.738 Y115.144 E27.58466
G1 X62.105 Y113.619 E27.63958
G1 X61.428 Y111.811 E27.70379
G1 X60.819 Y109.977 E27.76807
G1 X60.206 Y107.851 E27.84166
G1 X59.811 Y106.249 E27.89654
G1 X59.362 Y104.096 E27.96969
G1 X59.045 Y102.195 E28.03379
G1 X58.83 Y100.559 E28.08867
G1 X58.646 Y98.635 E28.15295
G1 X58.523 Y96.433 E28.22631
G1 X58.493 Y94.699 E28.28399
G1 X58.477 Y92.112 E28.37003
G1 X58.485 Y91.279 E28.39774
G1 X58.536 Y90.005 E28.44015
G1 X58.642 Y88.509 E28.49003
G1 X58.675 Y88.165 E28.50152
G1 X58.827 Y86.9 E28.5439
G1 X58.876 Y86.559 E28.55536
G1 X59.087 Y85.301 E28.59778
G1 X59.151 Y84.966 E28.60913
G1 X59.42 Y83.718 E28.65159
G1 X59.501 Y83.383 E28.66305
G1 X59.827 Y82.152 E28.70541
G1 X59.923 Y81.818 E28.71697
G1 X60.307 Y80.602 E28.75938
G1 X60.627 Y79.666 E28.79228
G1 X60.801 Y79.194 E28.80901
G1 X61.528 Y76.987 E28.8863
G1 X62.88 Y72.943 E29.02812
G1 X71.298 Y47.465 E29.92058
G1 X71.646 Y46.507 E29.95448
G1 X71.844 Y46.022 E29.9719
G1 X72.162 Y45.316 E29.99765
G1 X72.395 Y44.844 E30.01516
G1 X72.762 Y44.163 E30.04089
G1 X73.015 Y43.73 E30.05757
G0 F6000 X73.353 Y43.943
G1 F1200 X73.765 Y43.289 E30.08328
G1 X74.045 Y42.878 E30.09982
G1 X74.503 Y42.254 E30.12556
G1 X74.81 Y41.865 E30.14205
G1 X75.311 Y41.275 E30.16779
G1 X75.63 Y40.925 E30.18354
G1 X76.17 Y40.37 E30.2093
G1 X76.53 Y40.025 E30.22588
G1 X77.108 Y39.51 E30.25163
G1 X77.494 Y39.19 E30.26831
G1 X78.107 Y38.718 E30.29404
G1 X78.489 Y38.444 E30.30967
G1 X79.134 Y38.013 E30.33548
G1 X79.557 Y37.751 E30.35202
G1 X80.229 Y37.368 E30.37775
G1 X80.663 Y37.141 E30.39404
G1 X81.36 Y36.806 E30.41976
G1 X81.864 Y36.588 E30.43803
G1 X82.117 Y36.49 E30.44705
G1 X82.836 Y36.255 E30.47221
G1 X83.094 Y36.186 E30.48109
G1 X83.844 Y36.029 E30.50658
G1 X84.112 Y35.988 E30.51559
G1 X84.809 Y35.916 E30.5389
G1 X85.441 Y35.893 E30.55993
G1 X134.559 Y35.894 E32.19361
G1 X135.166 Y35.915 E32.21381
G1 X135.888 Y35.988 E32.23794
G1 X136.156 Y36.029 E32.24696
G1 X136.906 Y36.186 E32.27245
G1 X137.164 Y36.255 E32.28133
G1 X137.852 Y36.478 E32.30538
G1 X138.106 Y36.575 E32.31443
G1 X138.641 Y36.805 E32.3338
G1 X139.338 Y37.14 E32.35952
G1 X139.772 Y37.367 E32.37581
G1 X140.444 Y37.75 E32.40153
G1 X140.865 Y38.01 E32.41799
G1 X141.509 Y38.44 E32.44375
G1 X141.903 Y38.723 E32.45988
G1 X142.515 Y39.196 E32.48561
G1 X142.891 Y39.509 E32.50188
G1 X143.469 Y40.024 E32.52763
G1 X143.829 Y40.369 E32.54421
G1 X144.369 Y40.924 E32.56997
G1 X144.688 Y41.274 E32.58572
G1 X145.189 Y41.864 E32.61146
G1 X145.496 Y42.253 E32.62794
G1 X145.954 Y42.877 E32.65369
G1 X146.231 Y43.284 E32.67006
G1 X146.643 Y43.937 E32.69574
G1 X146.885 Y44.352 E32.71172
G1 X147.253 Y45.035 E32.73753
G1 X147.472 Y45.477 E32.75393
G1 X147.79 Y46.182 E32.77966
G1 X147.976 Y46.636 E32.79597
G1 X148.324 Y47.591 E32.82978
G1 X156.747 Y73.095 E33.72311
G1 X158.102 Y77.142 E33.86506
G1 X158.823 Y79.329 E33.94165
G1 X158.991 Y79.787 E33.95788
G1 X159.252 Y80.542 E33.98445
G1 X159.697 Y81.95 E34.03356
G1 X159.786 Y82.256 E34.04416
G1 X160.112 Y83.487 E34.08651
G1 X160.187 Y83.802 E34.09728
G1 X160.456 Y85.048 E34.13968
G1 X160.518 Y85.367 E34.15049
G1 X160.729 Y86.625 E34.19291
G1 X160.775 Y86.948 E34.20377
G1 X160.927 Y88.213 E34.24614
G1 X160.958 Y88.538 E34.257
G1 X161.063 Y90.008 E34.30602
G1 X161.116 Y91.298 E34.34896
G1 X161.122 Y92.225 E34.37979
G1 X161.106 Y94.774 E34.46457
G1 X161.067 Y96.692 E34.52838
G1 X160.956 Y98.6 E34.59195
G1 X160.803 Y100.243 E34.64683
G1 X160.519 Y102.403 E34.71929
G1 X160.195 Y104.287 E34.78287
G1 X159.858 Y105.904 E34.83781
G1 X159.403 Y107.762 E34.90143
G1 X158.8 Y109.855 E34.97388
G1 X158.284 Y111.422 E35.02875
G1 X157.525 Y113.465 E35.10124
G1 X156.79 Y115.224 E35.16464
G1 X155.932 Y117.108 E35.2335
G1 X155.837 Y117.366 E35.24264
G1 X155.756 Y117.639 E35.25211
G1 X155.688 Y117.939 E35.26235
G1 X155.647 Y118.192 E35.27087
G1 X155.62 Y118.47 E35.28016
G1 X155.607 Y118.882 E35.29387
G1 X155.606 Y173.5 E37.11047
G1 X155.596 Y173.882 E37.12318
G1 X155.574 Y174.285 E37.13661
G1 X155.49 Y175.048 E37.16214
G1 X155.424 Y175.446 E37.17555
G1 X155.241 Y176.249 E37.20295
G1 X155.128 Y176.639 E37.21645
G1 X154.875 Y177.362 E37.24193
G1 X154.721 Y177.735 E37.25535
G1 X154.375 Y178.455 E37.28192
G1 X154.179 Y178.809 E37.29538
G1 X153.765 Y179.467 E37.32123
G1 X153.531 Y179.797 E37.33469
G1 X153.048 Y180.404 E37.36049
G1 X152.779 Y180.706 E37.37394
G1 X152.209 Y181.276 E37.40075
G1 X151.906 Y181.546 E37.41425
G1 X151.293 Y182.034 E37.44031
G1 X150.961 Y182.269 E37.45384
G1 X150.317 Y182.674 E37.47914
G1 X149.966 Y182.869 E37.4925
G1 X149.237 Y183.22 E37.51941
G1 X148.864 Y183.374 E37.53283
G1 X148.146 Y183.626 E37.55814
G1 X147.757 Y183.739 E37.57161
G1 X146.958 Y183.921 E37.59887
G1 X146.557 Y183.988 E37.61239
G1 X145.802 Y184.073 E37.63766
G1 X145.399 Y184.096 E37.65109
G1 X145 Y184.107 E37.66436
G1 X75 Y184.106 E39.99257
G1 X74.618 Y184.096 E40.00528
G1 X74.215 Y184.074 E40.01871
